static/logo-light.svg

<?xml version="1.0" encoding="utf-8"?>
<!-- Generator: Adobe Illustrator 27.6.1, SVG Export Plug-In . SVG Version: 6.00 Build 0)  -->
<svg version="1.1" xmlns="http://www.w3.org/2000/svg" xmlns:xlink="http://www.w3.org/1999/xlink" x="0px" y="0px"
     viewBox="0 0 200 200" style="enable-background:new 0 0 200 200;" xml:space="preserve">
<style type="text/css">
	.st0{fill:#FFFFFF;}
	.st1{fill:none;}
	.st2{fill:#FFFFFF;stroke:#FFFFFF;stroke-width:1.5;stroke-miterlimit:10;}
	.st3{stroke:#000000;stroke-width:1.5;stroke-miterlimit:10;}
</style>
    <g id="Layer_2">
	<path d="M186,200H14c-7.73,0-14-6.27-14-14V14C0,6.27,6.27,0,14,0h172c7.73,0,14,6.27,14,14v172C200,193.73,193.73,200,186,200z"/>
        <path class="st0" d="M184.81,194.67H15.1c-5.6,0-10.14-4.54-10.14-10.14v-71.71c0-5.6,4.54-10.14,10.14-10.14h169.71
		c5.6,0,10.14,4.54,10.14,10.14v71.71C194.95,190.13,190.41,194.67,184.81,194.67z"/>
</g>
    <g id="Layer_1">
	<g>
		<rect x="24.98" y="25.9" class="st1" width="159.49" height="55.62"/>
        <path class="st2" d="M26,31.45v-4.43h24.79v4.43H40.7v40.82h-4.61V31.45H26z"/>
        <path class="st2" d="M86.61,61.17l3.63,1.91c-1.19,2.34-2.57,4.23-4.13,5.66c-1.56,1.44-3.31,2.53-5.27,3.28
			c-1.95,0.75-4.16,1.12-6.62,1.12c-5.46,0-9.73-1.79-12.81-5.37c-3.08-3.58-4.62-7.62-4.62-12.14c0-4.25,1.3-8.03,3.91-11.35
			c3.3-4.22,7.73-6.34,13.27-6.34c5.71,0,10.26,2.16,13.67,6.49c2.42,3.06,3.65,6.87,3.69,11.44H61.23
			c0.08,3.89,1.32,7.07,3.73,9.56s5.37,3.73,8.9,3.73c1.7,0,3.36-0.3,4.97-0.89c1.61-0.59,2.98-1.38,4.11-2.36
			C84.08,64.94,85.3,63.35,86.61,61.17z M86.61,52.15c-0.57-2.3-1.41-4.13-2.51-5.51c-1.1-1.37-2.55-2.48-4.36-3.32
			c-1.81-0.84-3.71-1.26-5.7-1.26c-3.29,0-6.11,1.06-8.47,3.17c-1.73,1.54-3.03,3.85-3.91,6.92H86.61z"/>
        <path class="st2" d="M133.69,45.76l-3.42,2.12C127.33,43.96,123.3,42,118.2,42c-4.08,0-7.46,1.31-10.15,3.93
			c-2.69,2.62-4.04,5.81-4.04,9.56c0,2.44,0.62,4.73,1.86,6.88c1.24,2.15,2.94,3.82,5.1,5.01s4.58,1.78,7.27,1.78
			c4.92,0,8.93-1.96,12.04-5.88l3.42,2.25c-1.6,2.41-3.75,4.28-6.44,5.61c-2.7,1.33-5.77,1.99-9.21,1.99
			c-5.29,0-9.68-1.68-13.17-5.04c-3.49-3.36-5.23-7.45-5.23-12.27c0-3.24,0.81-6.25,2.45-9.03c1.63-2.78,3.87-4.95,6.72-6.51
			c2.85-1.56,6.04-2.34,9.57-2.34c2.21,0,4.35,0.34,6.41,1.02c2.06,0.68,3.81,1.56,5.24,2.65
			C131.46,42.69,132.68,44.07,133.69,45.76z"/>
        <path class="st2" d="M143.79,25.88h4.31V44.8c1.74-2.3,3.66-4.01,5.75-5.15c2.09-1.14,4.36-1.71,6.8-1.71
			c2.5,0,4.72,0.64,6.66,1.91c1.94,1.27,3.37,2.98,4.29,5.12s1.38,5.5,1.38,10.07v17.23h-4.31V56.31c0-3.86-0.15-6.43-0.46-7.72
			c-0.53-2.21-1.5-3.88-2.91-5c-1.4-1.12-3.25-1.68-5.52-1.68c-2.6,0-4.94,0.86-7,2.58c-2.06,1.72-3.42,3.86-4.08,6.4
			c-0.41,1.64-0.62,4.68-0.62,9.11v12.27h-4.31V25.88z"/>
	</g>
        <g>
		<rect x="13.52" y="124.83" class="st1" width="170.6" height="60.89"/>
            <path class="st3" d="M61.17,134.34l-3.57,2.74c-1.97-2.56-4.33-4.51-7.09-5.83c-2.76-1.32-5.79-1.98-9.09-1.98
			c-3.61,0-6.95,0.87-10.03,2.6c-3.08,1.73-5.46,4.06-7.15,6.98c-1.69,2.92-2.54,6.21-2.54,9.86c0,5.52,1.89,10.12,5.68,13.81
			c3.78,3.69,8.56,5.54,14.32,5.54c6.34,0,11.64-2.48,15.9-7.44l3.57,2.71c-2.26,2.87-5.07,5.09-8.44,6.66
			c-3.37,1.57-7.14,2.35-11.31,2.35c-7.92,0-14.16-2.64-18.73-7.91c-3.83-4.45-5.75-9.82-5.75-16.12c0-6.62,2.32-12.2,6.97-16.72
			c4.65-4.52,10.46-6.78,17.46-6.78c4.22,0,8.04,0.84,11.44,2.51C56.21,128.98,59,131.33,61.17,134.34z"/>
            <path class="st3" d="M69.67,137.72h4.4v4.89c1.31-1.93,2.7-3.37,4.15-4.32c1.46-0.95,2.97-1.43,4.55-1.43
			c1.19,0,2.46,0.38,3.81,1.14l-2.25,3.63c-0.9-0.39-1.66-0.58-2.28-0.58c-1.44,0-2.82,0.59-4.15,1.77
			c-1.33,1.18-2.35,3.01-3.05,5.49c-0.53,1.91-0.8,5.76-0.8,11.57v11.32h-4.4V137.72z"/>
            <path class="st3" d="M120.2,160.09l3.63,1.91c-1.19,2.34-2.57,4.22-4.13,5.66c-1.56,1.44-3.31,2.53-5.26,3.28
			c-1.95,0.75-4.16,1.12-6.62,1.12c-5.46,0-9.73-1.79-12.81-5.37c-3.08-3.58-4.62-7.62-4.62-12.13c0-4.25,1.3-8.03,3.91-11.35
			c3.3-4.22,7.73-6.34,13.27-6.34c5.71,0,10.26,2.16,13.67,6.49c2.42,3.06,3.65,6.87,3.69,11.44H94.82
			c0.08,3.89,1.32,7.07,3.73,9.56c2.4,2.49,5.37,3.73,8.9,3.73c1.7,0,3.36-0.3,4.97-0.89c1.61-0.59,2.98-1.38,4.11-2.36
			C117.66,163.86,118.88,162.27,120.2,160.09z M120.2,151.07c-0.57-2.3-1.41-4.13-2.51-5.51c-1.1-1.37-2.55-2.48-4.36-3.32
			c-1.81-0.84-3.71-1.26-5.7-1.26c-3.29,0-6.11,1.06-8.47,3.17c-1.73,1.54-3.03,3.84-3.91,6.92H120.2z"/>
            <path class="st3" d="M130.2,137.72h4.43l10.26,24.3l10.68-24.3h0.78l10.75,24.3l10.46-24.3h4.48l-14.54,33.47h-0.8L156,147.23
			l-10.7,23.96h-0.8L130.2,137.72z"/>
	</g>
</g>
</svg>

<?xml version="1.0" encoding="UTF-8" standalone="no"?>
<!DOCTYPE svg PUBLIC "-//W3C//DTD SVG 1.1//EN" "http://www.w3.org/Graphics/SVG/1.1/DTD/svg11.dtd">
<svg width="100%" height="100%" viewBox="0 0 200 200" version="1.1" xmlns="http://www.w3.org/2000/svg" xmlns:xlink="http://www.w3.org/1999/xlink" xml:space="preserve" xmlns:serif="http://www.serif.com/" style="fill-rule:evenodd;clip-rule:evenodd;stroke-miterlimit:10;">
    <g id="Layer_2">
        <path d="M186,200L14,200C6.27,200 0,193.73 0,186L0,14C0,6.27 6.27,0 14,0L186,0C193.73,0 200,6.27 200,14L200,186C200,193.73 193.73,200 186,200Z" style="fill:white;fill-rule:nonzero;"/>
        <path d="M184.81,194.67L15.1,194.67C9.5,194.67 4.96,190.13 4.96,184.53L4.96,112.82C4.96,107.22 9.5,102.68 15.1,102.68L184.81,102.68C190.41,102.68 194.95,107.22 194.95,112.82L194.95,184.53C194.95,190.13 190.41,194.67 184.81,194.67Z" style="fill-rule:nonzero;"/>
    </g>
    <g id="Layer_1">
        <g>
            <rect x="24.98" y="25.9" width="159.49" height="55.62" style="fill:none;"/>
            <path d="M26,31.45L26,27.02L50.79,27.02L50.79,31.45L40.7,31.45L40.7,72.27L36.09,72.27L36.09,31.45L26,31.45Z" style="fill-rule:nonzero;stroke:black;stroke-width:1.5px;"/>
            <path d="M86.61,61.17L90.24,63.08C89.05,65.42 87.67,67.31 86.11,68.74C84.55,70.18 82.8,71.27 80.84,72.02C78.89,72.77 76.68,73.14 74.22,73.14C68.76,73.14 64.49,71.35 61.41,67.77C58.33,64.19 56.79,60.15 56.79,55.63C56.79,51.38 58.09,47.6 60.7,44.28C64,40.06 68.43,37.94 73.97,37.94C79.68,37.94 84.23,40.1 87.64,44.43C90.06,47.49 91.29,51.3 91.33,55.87L61.23,55.87C61.31,59.76 62.55,62.94 64.96,65.43C67.37,67.92 70.33,69.16 73.86,69.16C75.56,69.16 77.22,68.86 78.83,68.27C80.44,67.68 81.81,66.89 82.94,65.91C84.08,64.94 85.3,63.35 86.61,61.17ZM86.61,52.15C86.04,49.85 85.2,48.02 84.1,46.64C83,45.27 81.55,44.16 79.74,43.32C77.93,42.48 76.03,42.06 74.04,42.06C70.75,42.06 67.93,43.12 65.57,45.23C63.84,46.77 62.54,49.08 61.66,52.15L86.61,52.15Z" style="fill-rule:nonzero;stroke:black;stroke-width:1.5px;"/>
            <path d="M133.69,45.76L130.27,47.88C127.33,43.96 123.3,42 118.2,42C114.12,42 110.74,43.31 108.05,45.93C105.36,48.55 104.01,51.74 104.01,55.49C104.01,57.93 104.63,60.22 105.87,62.37C107.11,64.52 108.81,66.19 110.97,67.38C113.13,68.57 115.55,69.16 118.24,69.16C123.16,69.16 127.17,67.2 130.28,63.28L133.7,65.53C132.1,67.94 129.95,69.81 127.26,71.14C124.56,72.47 121.49,73.13 118.05,73.13C112.76,73.13 108.37,71.45 104.88,68.09C101.39,64.73 99.65,60.64 99.65,55.82C99.65,52.58 100.46,49.57 102.1,46.79C103.73,44.01 105.97,41.84 108.82,40.28C111.67,38.72 114.86,37.94 118.39,37.94C120.6,37.94 122.74,38.28 124.8,38.96C126.86,39.64 128.61,40.52 130.04,41.61C131.46,42.69 132.68,44.07 133.69,45.76Z" style="fill-rule:nonzero;stroke:black;stroke-width:1.5px;"/>
            <path d="M143.77,25.88L148.1,25.88L148.1,44.8C149.84,42.5 151.76,40.79 153.85,39.65C155.94,38.51 158.21,37.94 160.65,37.94C163.15,37.94 165.37,38.58 167.31,39.85C169.25,41.12 170.68,42.83 171.6,44.97C172.52,47.11 172.98,50.47 172.98,55.04L172.98,72.27L168.67,72.27L168.67,56.31C168.67,52.45 168.52,49.88 168.21,48.59C167.68,46.38 166.71,44.71 165.3,43.59C163.9,42.47 162.05,41.91 159.78,41.91C157.18,41.91 154.84,42.77 152.78,44.49C150.72,46.21 149.36,48.35 148.7,50.89C148.29,52.53 148.08,55.57 148.08,60L148.08,72.27L143.77,72.27L143.77,25.88Z" style="fill-rule:nonzero;stroke:black;stroke-width:1.5px;"/>
        </g>
        <g>
            <rect x="13.52" y="124.83" width="170.6" height="60.89" style="fill:none;"/>
            <path d="M61.17,134.34L57.6,137.08C55.63,134.52 53.27,132.57 50.51,131.25C47.75,129.93 44.72,129.27 41.42,129.27C37.81,129.27 34.47,130.14 31.39,131.87C28.31,133.6 25.93,135.93 24.24,138.85C22.55,141.77 21.7,145.06 21.7,148.71C21.7,154.23 23.59,158.83 27.38,162.52C31.16,166.21 35.94,168.06 41.7,168.06C48.04,168.06 53.34,165.58 57.6,160.62L61.17,163.33C58.91,166.2 56.1,168.42 52.73,169.99C49.36,171.56 45.59,172.34 41.42,172.34C33.5,172.34 27.26,169.7 22.69,164.43C18.86,159.98 16.94,154.61 16.94,148.31C16.94,141.69 19.26,136.11 23.91,131.59C28.56,127.07 34.37,124.81 41.37,124.81C45.59,124.81 49.41,125.65 52.81,127.32C56.21,128.98 59,131.33 61.17,134.34Z" style="fill:white;fill-rule:nonzero;stroke:white;stroke-width:1.5px;"/>
            <path d="M69.65,137.72L74.07,137.72L74.07,142.61C75.38,140.68 76.77,139.24 78.22,138.29C79.68,137.34 81.19,136.86 82.77,136.86C83.96,136.86 85.23,137.24 86.58,138L84.33,141.63C83.43,141.24 82.67,141.05 82.05,141.05C80.61,141.05 79.23,141.64 77.9,142.82C76.57,144 75.55,145.83 74.85,148.31C74.32,150.22 74.05,154.07 74.05,159.88L74.05,171.2L69.65,171.2L69.65,137.72Z" style="fill:white;fill-rule:nonzero;stroke:white;stroke-width:1.5px;"/>
            <path d="M120.2,160.09L123.83,162C122.64,164.34 121.26,166.22 119.7,167.66C118.14,169.1 116.39,170.19 114.44,170.94C112.49,171.69 110.28,172.06 107.82,172.06C102.36,172.06 98.09,170.27 95.01,166.69C91.93,163.11 90.39,159.07 90.39,154.56C90.39,150.31 91.69,146.53 94.3,143.21C97.6,138.99 102.03,136.87 107.57,136.87C113.28,136.87 117.83,139.03 121.24,143.36C123.66,146.42 124.89,150.23 124.93,154.8L94.82,154.8C94.9,158.69 96.14,161.87 98.55,164.36C100.95,166.85 103.92,168.09 107.45,168.09C109.15,168.09 110.81,167.79 112.42,167.2C114.03,166.61 115.4,165.82 116.53,164.84C117.66,163.86 118.88,162.27 120.2,160.09ZM120.2,151.07C119.63,148.77 118.79,146.94 117.69,145.56C116.59,144.19 115.14,143.08 113.33,142.24C111.52,141.4 109.62,140.98 107.63,140.98C104.34,140.98 101.52,142.04 99.16,144.15C97.43,145.69 96.13,147.99 95.25,151.07L120.2,151.07Z" style="fill:white;fill-rule:nonzero;stroke:white;stroke-width:1.5px;"/>
            <path d="M130.2,137.72L134.63,137.72L144.89,162.02L155.57,137.72L156.35,137.72L167.1,162.02L177.56,137.72L182.04,137.72L167.5,171.19L166.7,171.19L156,147.23L145.3,171.19L144.5,171.19L130.2,137.72Z" style="fill:white;fill-rule:nonzero;stroke:white;stroke-width:1.5px;"/>
        </g>
    </g>
</svg>
